svg/teams/teamsWaves-s.svg

<svg viewBox="0 0 675 900" xmlns="http://www.w3.org/2000/svg"><path d="M0 180l28.2 28.5C56.3 237 112.7 294 169 296.2c56.3 2.1 112.7-50.5 168.8-62 56.2-11.5 112.2 18.1 168.4 47.1 56.1 29 112.5 57.4 140.6 71.5L675 367v534H0z" fill="#ffb6b6"/><path d="M0 450l28.2-12c28.1-12 84.5-36 140.8-29.7 56.3 6.4 112.7 43 168.8 46.5 56.2 3.5 112.2-26.1 168.4-29.5 56.1-3.3 112.5 19.7 140.6 31.2L675 468v433H0z" fill="#ffc9c8"/><path d="M0 534l28.2 19.2c28.1 19.1 84.5 57.5 140.8 57.1 56.3-.3 112.7-39.3 168.8-51 56.2-11.6 112.2 4 168.4-.1C562.3 555 618.7 531 646.8 519l28.2-12v394H0z" fill="#ffdbda"/><path d="M0 745l28.2-2.7c28.1-2.6 84.5-8 140.8-25.8 56.3-17.8 112.7-48.2 168.8-40 56.2 8.2 112.2 54.8 168.4 82.8 56.1 28 112.5 37.4 140.6 42L675 806v95H0z" fill="#ffeded"/></svg>

<svg id="visual" viewBox="0 0 675 900" width="100%" height="100%" xmlns="http://www.w3.org/2000/svg" xmlns:xlink="http://www.w3.org/1999/xlink" version="1.1"><path d="M0 180L28.2 208.5C56.3 237 112.7 294 169 296.2C225.3 298.3 281.7 245.7 337.8 234.2C394 222.7 450 252.3 506.2 281.3C562.3 310.3 618.7 338.7 646.8 352.8L675 367L675 901L646.8 901C618.7 901 562.3 901 506.2 901C450 901 394 901 337.8 901C281.7 901 225.3 901 169 901C112.7 901 56.3 901 28.2 901L0 901Z" fill="#ffb6b6"></path><path d="M0 450L28.2 438C56.3 426 112.7 402 169 408.3C225.3 414.7 281.7 451.3 337.8 454.8C394 458.3 450 428.7 506.2 425.3C562.3 422 618.7 445 646.8 456.5L675 468L675 901L646.8 901C618.7 901 562.3 901 506.2 901C450 901 394 901 337.8 901C281.7 901 225.3 901 169 901C112.7 901 56.3 901 28.2 901L0 901Z" fill="#ffc9c8"></path><path d="M0 534L28.2 553.2C56.3 572.3 112.7 610.7 169 610.3C225.3 610 281.7 571 337.8 559.3C394 547.7 450 563.3 506.2 559.2C562.3 555 618.7 531 646.8 519L675 507L675 901L646.8 901C618.7 901 562.3 901 506.2 901C450 901 394 901 337.8 901C281.7 901 225.3 901 169 901C112.7 901 56.3 901 28.2 901L0 901Z" fill="#ffdbda"></path><path d="M0 745L28.2 742.3C56.3 739.7 112.7 734.3 169 716.5C225.3 698.7 281.7 668.3 337.8 676.5C394 684.7 450 731.3 506.2 759.3C562.3 787.3 618.7 796.7 646.8 801.3L675 806L675 901L646.8 901C618.7 901 562.3 901 506.2 901C450 901 394 901 337.8 901C281.7 901 225.3 901 169 901C112.7 901 56.3 901 28.2 901L0 901Z" fill="#ffeded"></path></svg>
